X:170
T:Munster Buttermilk
M:6/8
L:1/8
K:D
|: d2 e fdB|d2 e fdB|AFE E2 F|AFE E2 A|\
d2 e fdB|d2 e fdB|AFD D2 F|AFD D3 :|
|: B3 BAF|ABc d2 B|AFE E2 F|AFE E2 A|\
BAB BAF|ABc d2 B|AFD D2 F|1 AFD D2 A :|2 AFD D2 f|
|: gfg fed|ede fdB|AFE E2 F|AFE E2 f|\
gfg  fed|ede fdB|AFD D2 F|AFD D3 :|
